libs/ui/packages/crypto-icons/src/svg/FTC.svg

<svg width="24" height="24" viewBox="0 0 24 24" fill="none">
<path d="M18.4522 4.50012C18.4522 4.50012 19.6874 5.59812 18.8107 7.83237C18.644 8.24308 18.4126 8.62442 18.1252 8.96187L15.0764 12.5394L12.6299 15.7329C12.6299 15.7329 9.82044 15.2709 8.72844 16.4041L13.3589 16.6096C13.3589 16.6096 12.3704 17.6919 8.46894 16.9171C8.46894 16.9171 8.52144 18.0031 10.2907 18.3121C10.2907 18.3121 8.72844 18.8289 7.79169 17.3319C7.79169 17.3319 7.79169 18.4179 8.88369 18.8799C8.88369 18.8799 7.99869 19.0854 7.26969 18.1576L6.02244 19.4956C6.02244 19.4956 5.76369 19.5474 5.91894 19.2909L6.95919 18.0549C6.95919 18.0549 7.06269 17.1781 6.43719 17.4864C6.43719 17.4864 6.02244 17.6401 6.17769 18.1059C6.17769 18.1059 5.55219 17.5929 6.28194 16.9216L4.87494 15.5281L6.69594 16.5069L5.91519 14.5996L7.21419 16.2504C7.21419 16.2504 7.10619 14.3949 7.68069 13.8811C7.68069 13.8811 7.83594 15.6856 8.56569 15.8401L8.51319 12.0766L9.29469 11.4061L9.39819 13.7746C9.39819 13.7746 9.60519 14.0311 9.81219 13.7236C9.81219 13.7236 10.2824 12.9496 10.2824 10.6831L11.5297 9.49812L11.6857 10.4266C11.6857 10.4266 11.8964 10.7859 12.1559 10.4776L12.4147 8.67387C12.4147 8.67387 14.0797 6.76662 18.4522 4.50012ZM10.1272 14.9626C14.4427 10.9951 16.7347 7.12962 16.7302 7.12962C14.5987 8.62212 10.1272 14.9634 10.1272 14.9634V14.9626Z" fill="#27323A"/>
</svg>

<svg width="24" height="24" viewBox="0 0 24 24" fill="none"><path fill="#27323a" d="M18.452 4.5s1.235 1.098.359 3.332a4.2 4.2 0 0 1-.686 1.13l-3.049 3.577-2.446 3.194s-2.81-.462-3.902.671l4.63.206s-.988 1.082-4.89.307c0 0 .053 1.086 1.823 1.395 0 0-1.563.517-2.5-.98 0 0 0 1.086 1.093 1.548 0 0-.885.205-1.614-.722l-1.248 1.338s-.258.051-.103-.205l1.04-1.236s.104-.877-.522-.569c0 0-.415.154-.26.62 0 0-.625-.513.105-1.184l-1.407-1.394 1.82.979-.78-1.907 1.3 1.65s-.109-1.855.466-2.369c0 0 .155 1.805.885 1.96l-.053-3.764.782-.67.103 2.368s.207.256.414-.051c0 0 .47-.774.47-3.04l1.248-1.186.156.929s.21.359.47.05l.259-1.803S14.08 6.767 18.452 4.5m-8.325 10.463c4.316-3.968 6.608-7.833 6.603-7.833-2.131 1.492-6.603 7.833-6.603 7.833"/></svg>
